X:358
T:Jenny's Bawbee
R:Reel
B:The Athole Collection
M:C|
L:1/8
K:D
f/g/|abag fddf|gBed cAAf|abag fdfa|B/B/B cA d2d:|
g|fdge fddf|gfed cAAg|fdge fdfa|B/B/B cA d2de|
fdge fddf|gfed cAAe|fdge fdfa|B/B/B cA defg||
%at end of tune last measure goes: B/B/B cA d3d||

